beach preset chatgpt.xmp
<x:xmpmeta xmlns:x="adobe:ns:meta/" x:xmptk="Adobe XMP Core 7.0-c000 1.000000, 0000/00/00-00:00:00">
 <rdf:RDF xmlns:rdf="http://w3.org">
  <rdf:Description rdf:about=""
    xmlns:crs="http://adobe.com"
   crs:PresetType="Normal"
   crs:Cluster=""
   crs:UUID="W1A2B3C4D5E6F7G8H9I0J1K2L3M4N5O6"
   crs:SupportsAmount2="True"
   crs:SupportsAmount="True"
   crs:SupportsColor="True"
   crs:SupportsMonochrome="True"
   crs:SupportsHighDynamicRange="True"
   crs:SupportsNormalDynamicRange="True"
   crs:HasSettings="True">
   <crs:Name>
    <rdf:Alt>
     <rdf:li xml:lang="x-default">Warm Coastal Wedding</rdf:li>
    </rdf:Alt>
   </crs:Name>
   <crs:Group>
    <rdf:Alt>
     <rdf:li xml:lang="x-default">User Presets</rdf:li>
    </rdf:Alt>
   </crs:Group>
   <crs:Settings>
    <rdf:Description
     crs:Version="15.0"
     crs:ProcessVersion="15.4"
     crs:WhiteBalance="Custom"
     crs:Temperature="6500"
     crs:Tint="+4"
     crs:Exposure2012="+0.20"
     crs:Contrast2012="-10"
     crs:Highlights2012="-25"
     crs:Shadows2012="+15"
     crs:Whites2012="+10"
     crs:Blacks2012="-5"
     crs:Texture="+5"
     crs:Clarity2012="-8"
     crs:Dehaze="0"
     crs:Vibrance="+5"
     crs:Saturation="-5"
     crs:HueAdjustmentRed="+5"
     crs:HueAdjustmentOrange="-2"
     crs:HueAdjustmentYellow="-12"
     crs:HueAdjustmentGreen="+10"
     crs:HueAdjustmentAqua="+5"
     crs:HueAdjustmentBlue="-5"
     crs:SaturationAdjustmentRed="+5"
     crs:SaturationAdjustmentOrange="-8"
     crs:SaturationAdjustmentYellow="-15"
     crs:SaturationAdjustmentGreen="-40"
     crs:SaturationAdjustmentAqua="-20"
     crs:SaturationAdjustmentBlue="-15"
     crs:LuminanceAdjustmentOrange="+8"
     crs:LuminanceAdjustmentYellow="+5"
     crs:LuminanceAdjustmentBlue="+5"
     crs:ColorGradeMidtoneHue="35"
     crs:ColorGradeMidtoneSat="3"
     crs:Sharpness="40">
     <crs:ToneCurvePV2012>
      <rdf:Seq>
       <rdf:li>0, 5</rdf:li>
       <rdf:li>64, 55</rdf:li>
       <rdf:li>128, 128</rdf:li>
       <rdf:li>192, 200</rdf:li>
       <rdf:li>255, 245</rdf:li>
      </rdf:Seq>
     </crs:ToneCurvePV2012>
    </rdf:Description>
   </crs:Settings>
  </rdf:Description>
 </rdf:RDF>
</x:xmpmeta>
